src/icons/service-cloudformation.svg

<svg enable-background="new 0 0 12 14" viewBox="0 0 12 14" xmlns="http://www.w3.org/2000/svg"><path d="m1 9.7 5 1.5v-.9l-3.4-.8z" fill="#b7ca9d"/><path d="m6 3.8-3.4.8-1.6-.3 5-1.5z" fill="#3c4929"/><path d="m11 9.7-5 1.5v-.9l3.4-.8z" fill="#b7ca9d"/><path d="m6 3.8 3.4.8 1.6-.3-5-1.5z" fill="#3c4929"/><path d="m2.6 9.5-1.6.2v-5.4l1.6.3z" fill="#759c3e"/><path d="m6 0-5.7 2.9v8.2l5.7 2.9zm-1.7 10.7-3.3-1v-5.4l3.3-1z" fill="#4b612c"/><path d="m9.4 9.5 1.6.2v-5.4l-1.6.3z" fill="#4b612c"/><path d="m6 14 5.7-2.9v-8.2l-5.7-2.9zm1.7-10.6 3.3 1v5.3l-3.3 1z" fill="#759c3e"/></svg>

<svg viewBox="0 0 12 14" xmlns="http://www.w3.org/2000/svg"><path d="M1 9.7l5 1.5v-.9l-3.4-.8z" fill="#b7ca9d"/><path d="M6 3.8l-3.4.8L1 4.3l5-1.5z" fill="#3c4929"/><path d="M11 9.7l-5 1.5v-.9l3.4-.8z" fill="#b7ca9d"/><path d="M6 3.8l3.4.8 1.6-.3-5-1.5z" fill="#3c4929"/><path d="M2.6 9.5L1 9.7V4.3l1.6.3z" fill="#759c3e"/><path d="M6 0L.3 2.9v8.2L6 14zM4.3 10.7L1 9.7V4.3l3.3-1zM9.4 9.5l1.6.2V4.3l-1.6.3z" fill="#4b612c"/><path d="M6 14l5.7-2.9V2.9L6 0zM7.7 3.4l3.3 1v5.3l-3.3 1z" fill="#759c3e"/></svg>
